svg/circle_off_outline.svg

<svg xmlns="http://www.w3.org/2000/svg" viewBox="0 0 24 24"><path d="M22.11 21.46 2.39 1.73 1.11 3l2.95 2.95A9.95 9.95 0 0 0 2 12c0 5.5 4.5 10 10 10 2.28 0 4.37-.77 6.05-2.06l2.79 2.79zM12 20c-4.42 0-8-3.58-8-8 0-1.73.56-3.32 1.5-4.62L16.62 18.5A7.78 7.78 0 0 1 12 20M8.17 4.97 6.72 3.5C8.25 2.56 10.06 2 12 2c5.5 0 10 4.5 10 10 0 1.94-.56 3.75-1.5 5.28l-1.47-1.45c.62-1.14.97-2.44.97-3.83 0-4.42-3.58-8-8-8-1.39 0-2.69.35-3.83.97"/></svg>

<?xml version="1.0" encoding="UTF-8"?><!DOCTYPE svg PUBLIC "-//W3C//DTD SVG 1.1//EN" "http://www.w3.org/Graphics/SVG/1.1/DTD/svg11.dtd"><svg xmlns="http://www.w3.org/2000/svg" xmlns:xlink="http://www.w3.org/1999/xlink" version="1.1" id="mdi-circle-off-outline" width="24" height="24" viewBox="0 0 24 24"><path d="M22.11 21.46L2.39 1.73L1.11 3L4.06 5.95C2.78 7.63 2 9.72 2 12C2 17.5 6.5 22 12 22C14.28 22 16.37 21.23 18.05 19.94L20.84 22.73L22.11 21.46M12 20C7.58 20 4 16.42 4 12C4 10.27 4.56 8.68 5.5 7.38L16.62 18.5C15.32 19.45 13.73 20 12 20M8.17 4.97L6.72 3.5C8.25 2.56 10.06 2 12 2C17.5 2 22 6.5 22 12C22 13.94 21.44 15.75 20.5 17.28L19.03 15.83C19.65 14.69 20 13.39 20 12C20 7.58 16.42 4 12 4C10.61 4 9.31 4.35 8.17 4.97Z" /></svg>
